X:54
T:Jan van Leuven
C:Traditioneel
O:Winksele-Delle (Vlaanderen)
Z:Bert Van Vreckem <http://flanders.blackmill.net/music/>
M:6/8
Q:3/8=108
N:Voorspel (AABB) ad lib.
K:G
P:Voorspel
d2d d2B|d2d d2B|d^cd e2d|c2AG3||
P:A
!segno!|:d2d d2B|d2d d2B|d^cd e2d|c2BA3|c2cc2A|c2cc2A|cBc d2c|1B2A G3:|2B2A G2D||
P:B
|:DEF G2E|EFG A2A|ABc ded|1cBA B2D:|2cBA G2!D.S.!z|]

